X: 1242
T: Battle of the Somme
C:Pipe Major William Laurie, Ballachulish (1882-1916)
B: australian traditional tunes wiki
M:9/8
L:1/8
R: Air
Q: 3/8=100
K:D
V:1 
|:A|"D"f>afd3"Bm"d>cd|"Em"e>dG"G"B3"A7"A3|"G"B>GB "A7"A3"D"f3|"Bm"f>af"A7"e3-e2A|
"D"f>af"Bm"d3d>cd"A7"|e>dG"Em"B3"D"A3|"G"B>GB"A7"A3"D"f3|"A7"e>fe"D"d3-d2:|
|:z|"D"d>cd"A7"e3"D"A3|"A7"e>fg "D"f<af"Bm"d3|"D"f>ef"G"g3"A7"A3|"D"f<af "A7"e3e2A|
"D"f>af"Bm"d3d>cd|"A7"e>dG"Em"B3"D"A3|"G"B>GB"A7"A3"D"f3|"A7"e>fe"D"d3-d2:|
% abcbook-tune_id 6342d53a54b9602f83cdf940


% abcbook-boost 0
% abcbook-tablature 
% abcbook-transpose 
% abcbook-lastupdated 1665324355646
% abcbook-soundfonts 
% abcbook-repeats 1
% NFF Book 2013

